outputs/icons/action/filter_round.svg

<svg xmlns="http://www.w3.org/2000/svg" width="1200" height="1200" fill="none"><g clip-path="url(#a)"><path fill="#000" d="M550 900h100c27.5 0 50-22.5 50-50s-22.5-50-50-50H550c-27.5 0-50 22.5-50 50s22.5 50 50 50M150 350c0 27.5 22.5 50 50 50h800c27.5 0 50-22.5 50-50s-22.5-50-50-50H200c-27.5 0-50 22.5-50 50m200 300h500c27.5 0 50-22.5 50-50s-22.5-50-50-50H350c-27.5 0-50 22.5-50 50s22.5 50 50 50"/></g><defs><clipPath id="a"><path fill="#fff" d="M0 0h1200v1200H0z"/></clipPath></defs></svg>

<svg width="1200" height="1200" viewBox="0 0 1200 1200" fill="none" xmlns="http://www.w3.org/2000/svg"><g clip-path="url(#clip0_223_1865)"><path d="M550 900H650C677.5 900 700 877.5 700 850C700 822.5 677.5 800 650 800H550C522.5 800 500 822.5 500 850C500 877.5 522.5 900 550 900ZM150 350C150 377.5 172.5 400 200 400H1000C1027.5 400 1050 377.5 1050 350C1050 322.5 1027.5 300 1000 300H200C172.5 300 150 322.5 150 350ZM350 650H850C877.5 650 900 627.5 900 600C900 572.5 877.5 550 850 550H350C322.5 550 300 572.5 300 600C300 627.5 322.5 650 350 650Z" fill="black"/></g><defs><clipPath id="clip0_223_1865"><path width="24" fill="white" d="M0 0H1200V1200H0V0z"/></clipPath></defs></svg>
